assets/img/spotify.svg

<svg xmlns="http://www.w3.org/2000/svg" width="16" height="16" viewBox="0 0 16 16"><path d="M8 0C3.582 0 0 3.582 0 8s3.582 8 8 8 8-3.582 8-8-3.582-8-8-8zm3.695 12.69c-.1.182-.287.284-.48.284-.09 0-.18-.02-.266-.067-1.282-.706-2.737-1.08-4.207-1.08-.88 0-1.75.132-2.584.39-.29.09-.6-.072-.688-.363-.09-.29.072-.904.363-.994.94-.29 1.918-.438 2.91-.438 1.654 0 3.292.42 4.735 1.215.266.145.363.787.215 1.052zm1.017-3.014c-.114.22-.338.577-.57.577-.1 0-.2-.022-.294-.073-1.588-.825-3.305-1.242-5.104-1.242-.99 0-1.975.13-2.925.392-.344.093-.696-.108-.79-.45-.09-.343.11-.926.452-1.02 1.06-.288 2.158-.435 3.262-.435 1.98 0 3.947.48 5.693 1.388.315.162.438.548.275.863zm.425-2.413c-.11 0-.22-.025-.326-.077-1.894-.945-3.935-1.423-6.065-1.423-1.11 0-2.216.135-3.29.4-.393.097-.79-.142-.887-.535-.098-.392.142-.867.535-.964 1.187-.295 2.412-.444 3.64-.444 2.36 0 4.622.53 6.72 1.577.364.18.512.62.33.983-.128.257-.386.483-.656.483z"/></svg>

<?xml version="1.0" encoding="utf-8"?>
<!-- Generator: Adobe Illustrator 16.0.4, SVG Export Plug-In . SVG Version: 6.00 Build 0)  -->
<!DOCTYPE svg PUBLIC "-//W3C//DTD SVG 1.1//EN" "http://www.w3.org/Graphics/SVG/1.1/DTD/svg11.dtd">
<svg version="1.1" id="Capa_1" xmlns="http://www.w3.org/2000/svg" xmlns:xlink="http://www.w3.org/1999/xlink" x="0px" y="0px"
	 width="16px" height="16px" viewBox="0 0 16 16" enable-background="new 0 0 16 16" xml:space="preserve">
<path d="M8,0C3.582,0,0,3.582,0,8s3.582,8,8,8s8-3.582,8-8S12.418,0,8,0z M11.695,12.689c-0.1,0.183-0.287,0.285-0.481,0.285
	c-0.09,0-0.18-0.021-0.265-0.067c-1.281-0.706-2.736-1.079-4.206-1.079c-0.881,0-1.751,0.131-2.584,0.389
	c-0.29,0.09-0.598-0.072-0.687-0.363c-0.09-0.289,0.072-0.904,0.363-0.994c0.939-0.291,1.918-0.438,2.909-0.438
	c1.655,0,3.293,0.42,4.736,1.215C11.746,11.782,11.843,12.424,11.695,12.689z M12.712,9.676c-0.114,0.221-0.338,0.577-0.569,0.577
	c-0.101,0-0.201-0.022-0.295-0.073C10.26,9.355,8.543,8.938,6.744,8.938c-0.991,0-1.975,0.131-2.925,0.392
	c-0.343,0.093-0.695-0.108-0.788-0.45C2.939,8.537,3.14,7.954,3.482,7.861c1.06-0.289,2.158-0.436,3.262-0.436
	c1.979,0,3.947,0.48,5.693,1.388C12.752,8.975,12.875,9.361,12.712,9.676z M13.137,7.263c-0.109,0-0.221-0.025-0.326-0.077
	c-1.895-0.945-3.936-1.423-6.066-1.423c-1.11,0-2.216,0.135-3.289,0.4C3.062,6.26,2.665,6.021,2.568,5.628
	C2.47,5.236,2.71,4.761,3.103,4.664C4.29,4.369,5.515,4.22,6.744,4.22c2.359,0,4.621,0.531,6.72,1.577
	c0.363,0.181,0.511,0.621,0.33,0.983C13.665,7.037,13.407,7.263,13.137,7.263z"/>
</svg>
